!!!!SEGMENT: pl-wtm--r-704-m--001_moniuszko-stanislaw--widma-no-1-widma.krn
!!!cenid: 18xx:3057
!!!COM: Moniuszko, Stanisław
!!!COM-rismid: pe30008351
!!!CDT: 1819/05/05-1872/06/04
!!!CNT: Polish
!!!OTL: Widma
!!!PDT: 1852
!!!AGN: Secular
!!!SMS-siglum: PL-Wtm
!!!SMS-shelfmark: R 704/M
!!!SMS-shelfwork: G
!!!SMS-variant:
!!!SMS-altvar:
!!!NIFC-rismid: 1001093778
!!!URL-scan: http://repozytorium.nifc.pl/skany/pl-wtm-nut--r704m
!!!ONB-nifc: UWAGA: skany 0004-0005 (cała lewa strona z Moderato). Następna część: Lento-Guślarz („Ciemno wszędzie”). Nie wpisywać tekstu rosyjskiego i samodzielnych dialogów poza krótkimi didaskaliami.
!!!OMD: Largo.
**kern	**dynam	**kern	**dynam	**kern	**text	**text	**dynam	**kern	**text	**dynam	**kern	**text	**text	**dynam	**kern	**text	**text	**dynam
*	*	*	*	*	*	*color:red	*	*	*	*	*	*	*color:red	*	*	*	*color:red	*
*group2	*	*group2	*	*group1	*	*	*	*group1	*	*	*group1	*	*	*	*group1	*	*	*
*part6	*part6	*part5	*part5	*part4	*part4	*part4	*part4	*part3	*part3	*part3	*part2	*part2	*part2	*part2	*part1	*part1	*part1	*part1
*staff6	*	*staff5	*	*staff4	*staff4	*staff4	*	*staff3	*staff3	*	*staff2	*staff2	*staff2	*	*staff1	*staff1	*staff1	*
*	*	*	*	*	*	*	*	*	*	*	*	*	*	*	*I""Chór.	*	*	*
*I"Forte-Piano.	*	*I"Forte-Piano.	*	*I"Bassi.	*	*	*	*I"Tenori	*	*	*I"Alto.	*	*	*	*I"Soprani	*	*	*
*clefF4	*	*clefG2	*	*clefF4	*	*	*	*clefG2	*	*	*clefG2	*	*	*	*clefG2	*	*	*
*k[b-]	*	*k[b-]	*	*k[b-]	*	*	*	*k[b-]	*	*	*k[b-]	*	*	*	*k[b-]	*	*	*
*M4/4	*	*M4/4	*	*M4/4	*	*	*	*M4/4	*	*	*M4/4	*	*	*	*M4/4	*	*	*
*met(c)	*	*met(c)	*	*met(c)	*	*	*	*met(c)	*	*	*met(c)	*	*	*	*met(c)	*	*	*
=1	=1	=1	=1	=1	=1	=1	=1	=1	=1	=1	=1	=1	=1	=1	=1	=1	=1	=1
!	!	!	!	!	!	!	!	!	!	!	!	!	!	!	!LO:TX:a:t=No 1. _ Widma.	!	!	!
!	!	!	!	!	!	!	!	!	!	!	!	!	!	!	!LO:TX:a:t=Guślarz – Starzec z Chóru – Chór wieśniaków – Kaplica – Wieczór –	!	!	!
1DD@ 1D@	.	1d@	.	1r	.	.	.	1r	.	.	1r	.	.	.	1r	.	.	.
=2	=2	=2	=2	=2	=2	=2	=2	=2	=2	=2	=2	=2	=2	=2	=2	=2	=2	=2
!	!	!	!LO:DY:rj:t=pp.	!	!	!	!	!	!	!	!	!	!	!	!	!	!	!
[<2DD/ [>2D	.	[<2d/	pp	2r	.	.	.	2r	.	.	2r	.	.	.	2r	.	.	.
8DD/] 8D]	.	8d/]	.	4r	.	.	.	4r	.	.	4r	.	.	.	4r	.	.	.
8r	.	8r	.	.	.	.	.	.	.	.	.	.	.	.	.	.	.	.
!	!	!	!	!LO:TX:a:t=Bassi.	!	!	!LO:DY:a:rj:t=p	!LO:TX:a:t=Tenori	!	!LO:DY:a:rj:t=p.	!LO:TX:a:t=Alto.	!	!	!LO:DY:a:rj:t=p.	!LO:TX:a:t=Soprani	!	!	!LO:DY:a:rj:t=p.
4r	.	4r	.	8D\	Ciem-	.	p	8d/	Ciem-	p	8d/	Ciem-	Nel	p	8d/	Ciem-	.	p
.	.	.	.	8E\	-no	.	.	8e/	-no	.	8e/	-no	si-	.	8e/	-no	.	.
=3	=3	=3	=3	=3	=3	=3	=3	=3	=3	=3	=3	=3	=3	=3	=3	=3	=3	=3
*	*	*	*	*2\right	*	*	*	*	*	*	*	*	*	*	*	*	*	*
1r	.	1r	.	2F\	[wszę-	.	.	2f/	[wszę-	.	2f/	[wszę-	-len-	.	2f/	wszę-	.	.
.	.	.	.	4F\	-dzie,	.	.	4f/	-dzie,	.	4f/	-dzie,	-te	.	4f/	-dzie,	.	.
.	.	.	.	8.G\	głu-	.	.	8.g/	głu-	.	8.g/	głu-	te-	.	8.g/	głu-	.	.
.	.	.	.	16F\	-cho	.	.	16f/	-cho	.	16f/	-cho	-ne-	.	16f/	-cho	.	.
=4	=4	=4	=4	=4	=4	=4	=4	=4	=4	=4	=4	=4	=4	=4	=4	=4	=4	=4
1r	.	1r	.	2E\	wszę-	.	.	2e/	wszę-	.	2e/	wszę-	-bro-	.	2e/	wszę-	.	.
.	.	.	.	8E\	-dzie	.	.	8e/	-dzie	.	8e/	-dzie	-re,	.	8e/	-dzie	.	.
.	.	.	.	8r	.	.	.	8r	.	.	8r	.	.	.	8r	.	.	.
.	.	.	.	8.A\	co	.	.	8.a/	co	.	8.a/	co	qua-	.	8.a/	co	.	.
.	.	.	.	16A\	to]	.	.	16a/	to]	.	16a/	to]	-li ar-	.	16a/	to	.	.
!!LO:LB:g=original
=5	=5	=5	=5	=5	=5	=5	=5	=5	=5	=5	=5	=5	=5	=5	=5	=5	=5	=5
!	!	!	!LO:DY:rj:t=p.	!	!	!	!LO:HP:a	!	!	!LO:HP:a	!	!	!	!LO:HP:a	!	!	!	!LO:HP:a
2r	.	[<2D</ [>2d	p	4.D\	bę-	can	<	(<2d/	bę-	<	(<2d/	bę-	ca-	<	4.d/	bę-	can	<
.	.	.	.	8D\	-dzie,	celo	[	.	.	.	.	.	.	.	8d/	-dzie,	celo	[
*tremolo	*	*	*	*	*	*	*	*	*	*	*	*	*	*	*	*	*	*
!	!	!	!	!	!	!	!LO:HP:a	!	!	!LO:HP:a	!	!	!	!LO:HP:a	!	!	!	!LO:HP:a
32GGG/LLL	>	2D</] 2G< 2B-< 2d]	.	4.GG/	co	il	>	(<2g/)	.	[ > ]]	(<2B-/)	.	.	[ > ]]	4.d/	co	il	>
32DD/	.	.	.	.	.	.	.	.	.	.	.	.	.	.	.	.	.	.
32GGG/	.	.	.	.	.	.	.	.	.	.	.	.	.	.	.	.	.	.
32DD/	.	.	.	.	.	.	.	.	.	.	.	.	.	.	.	.	.	.
32GGG/	.	.	.	.	.	.	.	.	.	.	.	.	.	.	.	.	.	.
32DD/	.	.	.	.	.	.	.	.	.	.	.	.	.	.	.	.	.	.
32GGG/	.	.	.	.	.	.	.	.	.	.	.	.	.	.	.	.	.	.
32DD/	.	.	.	.	.	.	.	.	.	.	.	.	.	.	.	.	.	.
32GGG/	.	.	.	.	.	.	.	.	.	.	.	.	.	.	.	.	.	.
32DD/	.	.	.	.	.	.	.	.	.	.	.	.	.	.	.	.	.	.
32GGG/	.	.	.	.	.	.	.	.	.	.	.	.	.	.	.	.	.	.
32DD/	.	.	.	.	.	.	.	.	.	.	.	.	.	.	.	.	.	.
32GGG/	.	.	.	8BB-/	to	Si-	]	.	.	.	.	.	.	.	8d/	to	Si-	]
32DD/	.	.	.	.	.	.	.	.	.	.	.	.	.	.	.	.	.	.
32GGG/	.	.	.	.	.	.	.	.	.	.	.	.	.	.	.	.	.	.
32DD/JJJ	]]	.	.	.	.	.	.	.	.	.	.	.	.	.	.	.	.	.
=6	=6	=6	=6	=6	=6	=6	=6	=6	=6	=6	=6	=6	=6	=6	=6	=6	=6	=6
!	!LO:DY:rj:t=pp.	!	!	!	!	!	!	!	!	!	!	!	!	!	!	!	!	!
32GGG/LLL	pp	[>2F</ [>2A< [>2d	.	2D\	bę-	-gno-	.	2f/)	.	.	2A/)	.	.	.	2f/	bę-	-gno-	.
32DD/	.	.	.	.	.	.	.	.	.	.	.	.	.	.	.	.	.	.
32GGG/	.	.	.	.	.	.	.	.	.	.	.	.	.	.	.	.	.	.
32DD/	.	.	.	.	.	.	.	.	.	.	.	.	.	.	.	.	.	.
32GGG/	.	.	.	.	.	.	.	.	.	.	.	.	.	.	.	.	.	.
32DD/	.	.	.	.	.	.	.	.	.	.	.	.	.	.	.	.	.	.
32GGG/	.	.	.	.	.	.	.	.	.	.	.	.	.	.	.	.	.	.
32DD/	.	.	.	.	.	.	.	.	.	.	.	.	.	.	.	.	.	.
32GGG/	.	.	.	.	.	.	.	.	.	.	.	.	.	.	.	.	.	.
32DD/	.	.	.	.	.	.	.	.	.	.	.	.	.	.	.	.	.	.
32GGG/	.	.	.	.	.	.	.	.	.	.	.	.	.	.	.	.	.	.
32DD/	.	.	.	.	.	.	.	.	.	.	.	.	.	.	.	.	.	.
32GGG/	.	.	.	.	.	.	.	.	.	.	.	.	.	.	.	.	.	.
32DD/	.	.	.	.	.	.	.	.	.	.	.	.	.	.	.	.	.	.
32GGG/	.	.	.	.	.	.	.	.	.	.	.	.	.	.	.	.	.	.
32DD/JJJ	.	.	.	.	.	.	.	.	.	.	.	.	.	.	.	.	.	.
*Xtremolo	*	*	*	*	*	*	*	*	*	*	*	*	*	*	*	*	*	*
8GGG/	.	8F</] 8A<] 8d]	.	8D\	-dzie?	-re?..	.	8d/	-dzie?	.	8d/	-dzie?	-ni?	.	8d/	-dzie?	-re?	.
8r	.	8r	.	8r	.	.	.	8r	.	.	8r	.	.	.	8r	.	.	.
4r	.	4r	.	8F\	Ciem-	.	.	8f/	Ciem-	.	8f/	Ciem-	.	.	8f/	Ciem-	Nel	.
.	.	.	.	8G\	-no	.	.	8g/	-no	.	8g/	-no	.	.	8g/	-no	si-	.
=7	=7	=7	=7	=7	=7	=7	=7	=7	=7	=7	=7	=7	=7	=7	=7	=7	=7	=7
1r	.	1r	.	2A\	[wszę-	.	.	2a/	[wszę-	.	2a/	[wszę-	.	.	2a/	wszę-	-len-	.
.	.	.	.	4A\	-dzie,	.	.	4a/	-dzie,	.	4a/	-dzie,	.	.	4a/	-dzie,	-te	.
.	.	.	.	8.B-\	głu-	.	.	8.b-/	głu-	.	8.b-/	głu-	.	.	8.b-/	głu-	te-	.
.	.	.	.	16A\	-cho	.	.	16a/	-cho	.	16a/	-cho	.	.	16a/	-cho	-ne-	.
=8	=8	=8	=8	=8	=8	=8	=8	=8	=8	=8	=8	=8	=8	=8	=8	=8	=8	=8
!	!	!	!	!LO:N:vis=2.	!	!	!	!	!	!	!	!	!	!	!	!	!	!
1r	.	1r	.	2G\	wszę-	.	.	2g/	wszę-	.	2g/	wszę-	.	.	2g/	wszę-	-bro-	.
.	.	.	.	8G\	-dzie,	.	.	8g/	-dzie,	.	8g/	-dzie,	.	.	8g/	-dzie,	-re	.
.	.	.	.	8r	.	.	.	8r	.	.	8r	.	.	.	8r	.	.	.
.	.	.	.	8.c\	co	.	.	8.cc\	co	.	8.c/	co	.	.	8.cc\	co	qua-	.
!LO:TX:a:t=V&colon;S&colon;	!	!	!	!	!	!	!	!LO:TX:a:t=V&colon;S&colon;	!	!	!	!	!	!	!LO:TX:a:t=V&colon;S&colon;	!	!	!
.	.	.	.	16c\	to	.	.	16cc\	to	.	16d/	to	.	.	16cc\	to	-li ar	.
*	*	*clefF4	*	*	*	*	*	*	*	*	*	*	*	*	*	*	*	*
!!LO:PB:g=original
=9	=9	=9	=9	=9	=9	=9	=9	=9	=9	=9	=9	=9	=9	=9	=9	=9	=9	=9
*tremolo	*	*2\right	*	*	*	*	*	*	*	*	*	*	*	*	*	*	*	*
!	!	!	!LO:DY:rj:t=p.	!	!	!	!	!	!	!	!	!	!	!	!	!	!	!
32FF/LLL	.	[<2F\ (>2A 2c	p <	4.C/	bę-	.	.	4.f/	bę-	.	4.A/	bę-	can	.	4.c/	bę-	.	.
32C/	.	.	.	.	.	.	.	.	.	.	.	.	.	.	.	.	.	.
32FF/	.	.	.	.	.	.	.	.	.	.	.	.	.	.	.	.	.	.
32C/	.	.	.	.	.	.	.	.	.	.	.	.	.	.	.	.	.	.
32FF/	.	.	.	.	.	.	.	.	.	.	.	.	.	.	.	.	.	.
32C/	.	.	.	.	.	.	.	.	.	.	.	.	.	.	.	.	.	.
32FF/	.	.	.	.	.	.	.	.	.	.	.	.	.	.	.	.	.	.
32C/	.	.	.	.	.	.	.	.	.	.	.	.	.	.	.	.	.	.
32FF/	.	.	.	.	.	.	.	.	.	.	.	.	.	.	.	.	.	.
32C/	.	.	.	.	.	.	.	.	.	.	.	.	.	.	.	.	.	.
32FF/	.	.	.	.	.	.	.	.	.	.	.	.	.	.	.	.	.	.
32C/	.	.	.	.	.	.	.	.	.	.	.	.	.	.	.	.	.	.
32FF/	.	.	.	8C/	-dzie,	.	.	8f/	-dzie,	.	8A/	-dzie,	ce-	.	8c/	-dzie,	.	.
32C/	.	.	.	.	.	.	.	.	.	.	.	.	.	.	.	.	.	.
32FF/	.	.	.	.	.	.	.	.	.	.	.	.	.	.	.	.	.	.
32C/JJJ	.	.	.	.	.	.	.	.	.	.	.	.	.	.	.	.	.	.
32FF/LLL	.	2F\] 2A-X) 2c	[ > ]]	4.C^</	co	.	.	4.f^</	co	.	4.A-X/^<	co	-lo il	.	4.c^</	co	.	.
32C/	.	.	.	.	.	.	.	.	.	.	.	.	.	.	.	.	.	.
32FF/	.	.	.	.	.	.	.	.	.	.	.	.	.	.	.	.	.	.
32C/	.	.	.	.	.	.	.	.	.	.	.	.	.	.	.	.	.	.
32FF/	.	.	.	.	.	.	.	.	.	.	.	.	.	.	.	.	.	.
32C/	.	.	.	.	.	.	.	.	.	.	.	.	.	.	.	.	.	.
32FF/	.	.	.	.	.	.	.	.	.	.	.	.	.	.	.	.	.	.
32C/	.	.	.	.	.	.	.	.	.	.	.	.	.	.	.	.	.	.
32FF/	.	.	.	.	.	.	.	.	.	.	.	.	.	.	.	.	.	.
32C/	.	.	.	.	.	.	.	.	.	.	.	.	.	.	.	.	.	.
32FF/	.	.	.	.	.	.	.	.	.	.	.	.	.	.	.	.	.	.
32C/	.	.	.	.	.	.	.	.	.	.	.	.	.	.	.	.	.	.
32FF/	.	.	.	8C/	to	.	.	8f/	to	.	8A-/	to	Si-	.	8c/	to	.	.
32C/	.	.	.	.	.	.	.	.	.	.	.	.	.	.	.	.	.	.
32FF/	.	.	.	.	.	.	.	.	.	.	.	.	.	.	.	.	.	.
32C/JJJ	.	.	.	.	.	.	.	.	.	.	.	.	.	.	.	.	.	.
=10	=10	=10	=10	=10	=10	=10	=10	=10	=10	=10	=10	=10	=10	=10	=10	=10	=10	=10
!	!	!	!LO:DY:rj:t=pp.	!	!	!	!	!	!	!	!	!	!	!	!	!	!	!
32CC/LLL	.	2E\ 2G 2c	pp	1C	bę-]	.	>]	1e	bę-]	>]	1G	bę-]	-gno-	>]	1c	bę-	.	>]
32C/	.	.	.	.	.	.	.	.	.	.	.	.	.	.	.	.	.	.
32CC/	.	.	.	.	.	.	.	.	.	.	.	.	.	.	.	.	.	.
32C/	.	.	.	.	.	.	.	.	.	.	.	.	.	.	.	.	.	.
32CC/	.	.	.	.	.	.	.	.	.	.	.	.	.	.	.	.	.	.
32C/	.	.	.	.	.	.	.	.	.	.	.	.	.	.	.	.	.	.
32CC/	.	.	.	.	.	.	.	.	.	.	.	.	.	.	.	.	.	.
32C/	.	.	.	.	.	.	.	.	.	.	.	.	.	.	.	.	.	.
32CC/	.	.	.	.	.	.	.	.	.	.	.	.	.	.	.	.	.	.
32C/	.	.	.	.	.	.	.	.	.	.	.	.	.	.	.	.	.	.
32CC/	.	.	.	.	.	.	.	.	.	.	.	.	.	.	.	.	.	.
32C/	.	.	.	.	.	.	.	.	.	.	.	.	.	.	.	.	.	.
32CC/	.	.	.	.	.	.	.	.	.	.	.	.	.	.	.	.	.	.
32C/	.	.	.	.	.	.	.	.	.	.	.	.	.	.	.	.	.	.
32CC/	.	.	.	.	.	.	.	.	.	.	.	.	.	.	.	.	.	.
32C/JJJ	.	.	.	.	.	.	.	.	.	.	.	.	.	.	.	.	.	.
*Xtremolo	*	*	*	*	*	*	*	*	*	*	*	*	*	*	*	*	*	*
4CC/	.	4E\ 4G 4c	.	.	.	.	.	.	.	.	.	.	.	.	.	.	.	.
4CC/	.	4E\ 4G 4c	.	.	.	.	.	.	.	.	.	.	.	.	.	.	.	.
=11	=11	=11	=11	=11	=11	=11	=11	=11	=11	=11	=11	=11	=11	=11	=11	=11	=11	=11
2CC;>/ 2C	.	2E;>\ 2G 2c	.	4C/	-dzie?	.	.	4c/	-dzie?	.	4c/	-dzie?	-re?	.	4c/	-dzie?	.	.
.	.	.	.	4r	.	.	.	4r	.	.	4r	.	.	.	4r	.	.	.
2r;>	.	2r;>	.	2r;>	.	.	.	2r;>	.	.	2r;>	.	.	.	2r;>	.	.	.
*	*	*clefG2	*	*	*	*	*	*	*	*	*	*	*	*	*	*	*	*
!!LO:LB:g=original
=12||	=12||	=12||	=12||	=12||	=12||	=12||	=12||	=12||	=12||	=12||	=12||	=12||	=12||	=12||	=12||	=12||	=12||	=12||
!!!OMD:Modto
*k[b-]	*	*k[b-]	*	*k[b-]	*	*	*	*k[b-]	*	*	*k[b-]	*	*	*	*k[b-]	*	*	*
*M4/4	*	*M4/4	*	*M4/4	*	*	*	*M4/4	*	*	*M4/4	*	*	*	*M4/4	*	*	*
*met(c)	*	*met(c)	*	*met(c)	*	*	*	*met(c)	*	*	*met(c)	*	*	*	*met(c)	*	*	*
*^	*	*	*	*	*	*	*	*	*	*	*	*	*	*	*	*	*	*
!	!	!	!	!LO:DY:rj:t=mf.	!	!	!	!	!	!	!	!	!	!	!	!	!	!	!
2.A/	4r	.	2c^</	mf	1ryy	.	.	.	1ryy	.	.	1ryy	.	.	.	1ryy	.	.	.
.	4F\	.	.	.	.	.	.	.	.	.	.	.	.	.	.	.	.	.	.
*	*2\right	*	*	*	*	*	*	*	*	*	*	*	*	*	*	*	*	*	*
.	[<2BB-\	.	[>2d^</	.	.	.	.	.	.	.	.	.	.	.	.	.	.	.	.
8.G/L 8.B-	.	.	.	.	.	.	.	.	.	.	.	.	.	.	.	.	.	.	.
16F/Jk 16A	.	.	.	.	.	.	.	.	.	.	.	.	.	.	.	.	.	.	.
=13	=13	=13	=13	=13	=13	=13	=13	=13	=13	=13	=13	=13	=13	=13	=13	=13	=13	=13	=13
*	*	*	*^	*	*	*	*	*	*	*	*	*	*	*	*	*	*	*	*
2E/ 2G	4BB-\]	.	4d/]	2ryy	.	1ryy	.	.	.	1ryy	.	.	1ryy	.	.	.	1ryy	.	.	.
.	4AA\	.	8.c/L	.	.	.	.	.	.	.	.	.	.	.	.	.	.	.	.	.
.	.	.	16c/Jk	.	.	.	.	.	.	.	.	.	.	.	.	.	.	.	.	.
4F/	4D\	.	4f/	4ryy	.	.	.	.	.	.	.	.	.	.	.	.	.	.	.	.
(>4E/	8.C\L	.	4g/	[<4c\	.	.	.	.	.	.	.	.	.	.	.	.	.	.	.	.
.	16C\Jk	.	.	.	.	.	.	.	.	.	.	.	.	.	.	.	.	.	.	.
=14	=14	=14	=14	=14	=14	=14	=14	=14	=14	=14	=14	=14	=14	=14	=14	=14	=14	=14	=14	=14
8F/)	8FF\	.	8.a/L	8c\]	.	1ryy	.	.	.	1ryy	.	.	1ryy	.	.	.	1ryy	.	.	.
8r	8ryy	.	.	8r	.	.	.	.	.	.	.	.	.	.	.	.	.	.	.	.
.	.	.	[<16cc/Jk	.	.	.	.	.	.	.	.	.	.	.	.	.	.	.	.	.
(>4A^>\	4ryy	.	8.ff/L	4cc\_<	.	.	.	.	.	.	.	.	.	.	.	.	.	.	.	.
.	.	.	16ee/Jk	.	.	.	.	.	.	.	.	.	.	.	.	.	.	.	.	.
8.B-\L	2ryy	.	2dd/	(>4cc\]	.	.	.	.	.	.	.	.	.	.	.	.	.	.	.	.
16d\K	.	.	.	.	.	.	.	.	.	.	.	.	.	.	.	.	.	.	.	.
8.g\	.	.	.	8.b-\L	.	.	.	.	.	.	.	.	.	.	.	.	.	.	.	.
16f\Jk)	.	.	.	16a\Jk)	.	.	.	.	.	.	.	.	.	.	.	.	.	.	.	.
*v	*v	*	*	*	*	*	*	*	*	*	*	*	*	*	*	*	*	*	*	*
=15	=15	=15	=15	=15	=15	=15	=15	=15	=15	=15	=15	=15	=15	=15	=15	=15	=15	=15	=15
8e\	.	8.dd/L	[<2g\	.	1ryy	.	.	.	1ryy	.	.	1ryy	.	.	.	1ryy	.	.	.
8r	.	.	.	.	.	.	.	.	.	.	.	.	.	.	.	.	.	.	.
.	.	16g/K	.	.	.	.	.	.	.	.	.	.	.	.	.	.	.	.	.
(>4E^>\	.	8.cc/	.	.	.	.	.	.	.	.	.	.	.	.	.	.	.	.	.
.	.	16b-/Jk	.	.	.	.	.	.	.	.	.	.	.	.	.	.	.	.	.
8.F\L	.	2a/	(>4g\]	.	.	.	.	.	.	.	.	.	.	.	.	.	.	.	.
16A\K	.	.	.	.	.	.	.	.	.	.	.	.	.	.	.	.	.	.	.
8.d\	.	.	8.f\L	.	.	.	.	.	.	.	.	.	.	.	.	.	.	.	.
16c\Jk)	.	.	16e\Jk	.	.	.	.	.	.	.	.	.	.	.	.	.	.	.	.
!!LO:LB:g=original
=16	=16	=16	=16	=16	=16	=16	=16	=16	=16	=16	=16	=16	=16	=16	=16	=16	=16	=16	=16
4B-X\	.	8.a/L)	8d\	.	1ryy	.	.	.	1ryy	.	.	1ryy	.	.	.	1ryy	.	.	.
.	.	.	8r	.	.	.	.	.	.	.	.	.	.	.	.	.	.	.	.
.	.	16a/Jk	.	.	.	.	.	.	.	.	.	.	.	.	.	.	.	.	.
8.Bn\L	.	[>4a^>/	4d\ 4f	.	.	.	.	.	.	.	.	.	.	.	.	.	.	.	.
16B\Jk	.	.	.	.	.	.	.	.	.	.	.	.	.	.	.	.	.	.	.
8.c\L	.	8.a/L]	2ryy	.	.	.	.	.	.	.	.	.	.	.	.	.	.	.	.
16c#X\K	.	16e/K	.	.	.	.	.	.	.	.	.	.	.	.	.	.	.	.	.
8.d\	.	8.f/	.	.	.	.	.	.	.	.	.	.	.	.	.	.	.	.	.
16B-X\Jk	.	16g/Jk	.	.	.	.	.	.	.	.	.	.	.	.	.	.	.	.	.
=17	=17	=17	=17	=17	=17	=17	=17	=17	=17	=17	=17	=17	=17	=17	=17	=17	=17	=17	=17
8.A\L	.	8.a/L	8.c#X\L	.	1ryy	.	.	.	1ryy	.	.	1ryy	.	.	.	1ryy	.	.	.
16G\K	.	16a/Jk	16e\K	.	.	.	.	.	.	.	.	.	.	.	.	.	.	.	.
8.F\	.	[>4a^>/	8.a\	.	.	.	.	.	.	.	.	.	.	.	.	.	.	.	.
16E\Jk	.	.	16g\Jk	.	.	.	.	.	.	.	.	.	.	.	.	.	.	.	.
8D\	.	4a/]	8.f\L	.	.	.	.	.	.	.	.	.	.	.	.	.	.	.	.
8r	.	.	.	.	.	.	.	.	.	.	.	.	.	.	.	.	.	.	.
.	.	.	16e\K	.	.	.	.	.	.	.	.	.	.	.	.	.	.	.	.
(<4BB-^</	.	4dd/	8.f\	.	.	.	.	.	.	.	.	.	.	.	.	.	.	.	.
.	.	.	16g\Jk	.	.	.	.	.	.	.	.	.	.	.	.	.	.	.	.
*	*	*v	*v	*	*	*	*	*	*	*	*	*	*	*	*	*	*	*	*
=18	=18	=18	=18	=18	=18	=18	=18	=18	=18	=18	=18	=18	=18	=18	=18	=18	=18	=18
*^	*	*	*	*	*	*	*	*	*	*	*	*	*	*	*	*	*	*
8.AA/L)	[<1AAA	.	4e/ 4a (>4cc#X	.	1ryy	.	.	.	1ryy	.	.	1ryy	.	.	.	1ryy	.	.	.
16AA/Jk	.	.	.	.	.	.	.	.	.	.	.	.	.	.	.	.	.	.	.
8.AA/L	.	.	4d/ 4f 4g#X 4bn	.	.	.	.	.	.	.	.	.	.	.	.	.	.	.	.
16AA/Jk	.	.	.	.	.	.	.	.	.	.	.	.	.	.	.	.	.	.	.
!	!	!	!LO:TX:b:t=di_mi_nu_en_do.:problem:dynamics with extention lines	!LO:HP:t=di-mi-nu-en-do.:ext=ud	!	!	!	!	!	!	!	!	!	!	!	!	!	!	!
8.AA/L	.	.	4c#X/ 4e 4a	>	.	.	.	.	.	.	.	.	.	.	.	.	.	.	.
16AA/Jk	.	.	.	.	.	.	.	.	.	.	.	.	.	.	.	.	.	.	.
8.AA/L	.	.	4d/ 4f 4g#	.	.	.	.	.	.	.	.	.	.	.	.	.	.	.	.
16AA/Jk	.	.	.	.	.	.	.	.	.	.	.	.	.	.	.	.	.	.	.
=19	=19	=19	=19	=19	=19	=19	=19	=19	=19	=19	=19	=19	=19	=19	=19	=19	=19	=19	=19
8.AA/L	1AAA_<	.	4c#X/ 4e 4a	.	1ryy	.	.	.	1ryy	.	.	1ryy	.	.	.	1ryy	.	.	.
16AA/Jk	.	.	.	.	.	.	.	.	.	.	.	.	.	.	.	.	.	.	.
8.AA/L	.	.	4cn/ 4e-X 4f#X	.	.	.	.	.	.	.	.	.	.	.	.	.	.	.	.
16AA/Jk	.	.	.	.	.	.	.	.	.	.	.	.	.	.	.	.	.	.	.
8.AA/L	.	.	4Bn/ 4d 4g	.	.	.	.	.	.	.	.	.	.	.	.	.	.	.	.
16AA/Jk	.	.	.	.	.	.	.	.	.	.	.	.	.	.	.	.	.	.	.
8.AA/L	.	.	4B-X/ 4d-X 4en	.	.	.	.	.	.	.	.	.	.	.	.	.	.	.	.
16AA/Jk	.	.	.	.	.	.	.	.	.	.	.	.	.	.	.	.	.	.	.
!!LO:LB:g=original
=20	=20	=20	=20	=20	=20	=20	=20	=20	=20	=20	=20	=20	=20	=20	=20	=20	=20	=20	=20
!	!	!	!LO:TX:t=P:problem:w tym systemie diminuendo nad pięciolinią	!	!	!	!	!	!	!	!	!	!	!	!	!	!	!	!
8.AA/L	1AAA_<	.	4A</ 4c< 4f	.	1ryy	.	.	.	1ryy	.	.	1ryy	.	.	.	1ryy	.	.	.
16AA/Jk	.	.	.	.	.	.	.	.	.	.	.	.	.	.	.	.	.	.	.
8.AA/L	.	.	4A-X</ 4c-X< 4d	.	.	.	.	.	.	.	.	.	.	.	.	.	.	.	.
16AA/Jk	.	.	.	.	.	.	.	.	.	.	.	.	.	.	.	.	.	.	.
8.AA/L	.	.	4G</ 4B-< 4e-X	.	.	.	.	.	.	.	.	.	.	.	.	.	.	.	.
16AA/Jk	.	.	.	.	.	.	.	.	.	.	.	.	.	.	.	.	.	.	.
8.AA/L	.	.	4G-X</ 4An< 4c-	]]	.	.	.	.	.	.	.	.	.	.	.	.	.	.	.
16AA/Jk	.	.	.	.	.	.	.	.	.	.	.	.	.	.	.	.	.	.	.
=21	=21	=21	=21	=21	=21	=21	=21	=21	=21	=21	=21	=21	=21	=21	=21	=21	=21	=21	=21
*rep	*	*	*	*	*	*	*	*	*	*	*	*	*	*	*	*	*	*	*
8.AA/L	1AAA_<	.	4F</ 4A-X< 4d-X	.	1ryy	.	.	.	1ryy	.	.	1ryy	.	.	.	1ryy	.	.	.
16AA/Jk	.	.	.	.	.	.	.	.	.	.	.	.	.	.	.	.	.	.	.
8.AA/L	.	.	4E</ 4G< 4A#X<	.	.	.	.	.	.	.	.	.	.	.	.	.	.	.	.
16AA/Jk	.	.	.	.	.	.	.	.	.	.	.	.	.	.	.	.	.	.	.
8.AA/L	.	.	4D#X</ 4F#X< 4Bn<	.	.	.	.	.	.	.	.	.	.	.	.	.	.	.	.
16AA/Jk	.	.	.	.	.	.	.	.	.	.	.	.	.	.	.	.	.	.	.
8.AA/L	.	.	4Dn</) 4Fn< 4G#X<	.	.	.	.	.	.	.	.	.	.	.	.	.	.	.	.
16AA/Jk	.	.	.	.	.	.	.	.	.	.	.	.	.	.	.	.	.	.	.
*Xrep	*	*	*	*	*	*	*	*	*	*	*	*	*	*	*	*	*	*	*
*v	*v	*	*	*	*	*	*	*	*	*	*	*	*	*	*	*	*	*	*
=22	=22	=22	=22	=22	=22	=22	=22	=22	=22	=22	=22	=22	=22	=22	=22	=22	=22	=22
!	!	!LO:TX:b:t=Più mosso.	!LO:DY:rj:t=pp.	!	!	!	!	!	!	!	!	!	!	!	!	!	!	!
2AAA\]	.	2C#X</ 2E< [>2A<	pp	1ryy	.	.	.	1ryy	.	.	1ryy	.	.	.	1ryy	.	.	.
4..DD\	.	2D</ 2F< 2A<]	.	.	.	.	.	.	.	.	.	.	.	.	.	.	.	.
16EE\	.	.	.	.	.	.	.	.	.	.	.	.	.	.	.	.	.	.
=23	=23	=23	=23	=23	=23	=23	=23	=23	=23	=23	=23	=23	=23	=23	=23	=23	=23	=23
*	*	*^	*	*	*	*	*	*	*	*	*	*	*	*	*	*	*	*
2FF\	.	2C</ 2F< [>2A<	2ryy	.	1ryy	.	.	.	1ryy	.	.	1ryy	.	.	.	1ryy	.	.	.
4.EE\	.	2A</]	4.C#X<\ 4.G<	.	.	.	.	.	.	.	.	.	.	.	.	.	.	.	.
8DD\	.	.	8D<\ 8F<	.	.	.	.	.	.	.	.	.	.	.	.	.	.	.	.
*	*	*v	*v	*	*	*	*	*	*	*	*	*	*	*	*	*	*	*	*
=24	=24	=24	=24	=24	=24	=24	=24	=24	=24	=24	=24	=24	=24	=24	=24	=24	=24	=24
2.AAA;<\	.	2.AA<;>/ 2.E< 2.A<	.	2ryy	.	.	.	2ryy	.	.	2ryy	.	.	.	2ryy	.	.	.
.	.	.	.	4ryy	.	.	.	4ryy	.	.	4ryy	.	.	.	4ryy	.	.	.
==	==	==	==	==	==	==	==	==	==	==	==	==	==	==	==	==	==	==
*-	*-	*-	*-	*-	*-	*-	*-	*-	*-	*-	*-	*-	*-	*-	*-	*-	*-	*-
!!!system-decoration: s1,s2,s3,s4[(g2)]
!!!ENC: Marcin Jachim
!!!END: 2021-09-10
!!!EED: Jędrzej Mróz
!!!ESR: 2021-10-21
!!!RDF**kern: > = above
!!!RDF**kern: < = below
!!!RDF**kern: @ = marked note, color=gray
